src/assets/icons/fa/vine.svg

<?xml version="1.0" encoding="utf-8"?>
<svg width="1792" height="1792" viewBox="0 0 1792 1792" xmlns="http://www.w3.org/2000/svg"><path d="M1625 827v198q-101 23-198 23-65 136-165.5 271t-181.5 215.5-128 106.5q-80 45-162-3-28-17-60.5-43.5t-85-83.5-102.5-128.5-107.5-184-105.5-244-91.5-314.5-70.5-390h283q26 218 70 398.5t104.5 317 121.5 235.5 140 195q169-169 287-406-142-72-223-220t-81-333q0-192 104-314.5t284-122.5q178 0 273 105.5t95 297.5q0 159-58 286-7 1-19.5 3t-46 2-63-6-62-25.5-50.5-51.5q31-103 31-184 0-87-29-132t-79-45q-53 0-85 49.5t-32 140.5q0 186 105 293.5t267 107.5q62 0 121-14z"/></svg>

<svg width="1792" height="1792" xmlns="http://www.w3.org/2000/svg"><path d="M1625 827v198q-101 23-198 23-65 136-165.5 271T1080 1534.5 952 1641q-80 45-162-3-28-17-60.5-43.5t-85-83.5T542 1382.5t-107.5-184-105.5-244T237.5 640 167 250h283q26 218 70 398.5t104.5 317T746 1201t140 195q169-169 287-406-142-72-223-220t-81-333q0-192 104-314.5T1257 0q178 0 273 105.5t95 297.5q0 159-58 286-7 1-19.5 3t-46 2-63-6-62-25.5T1326 611q31-103 31-184 0-87-29-132t-79-45q-53 0-85 49.5T1132 440q0 186 105 293.5T1504 841q62 0 121-14z"/></svg>
